X:1
T: Highland Lilt
N:
C:
S:
A:
O:
R:
M:4/4
K:Am
I:speed 200
%W: A
% voice 1 (1 lines, 19 notes)
K:Am
M:4/4
L:1/16
e2 |A A A2 e2 A2 c3 d e3 ^f |g2 d2 d2 g2 G G G2 d2 B2 |
%W:
% voice 1 (1 lines, 15 notes)
A A A2 e2 A2 c3 d e3 ^f |g2 e2 g2 B2 A6 e2 |
%W:
% voice 1 (1 lines, 18 notes)
A A A2 e2 A2 c3 d e3 ^f |g2 d2 d2 g2 G G G2 d2 B2 |
%W:
% voice 1 (1 lines, 15 notes)
A A A2 e2 A2 c3 d e3 ^f |g2 e2 g2 B2 A6 e2 |
%W: B
% voice 1 (1 lines, 17 notes)
A A A2 a4 g3 ^f e3 ^f |g2 d2 e2 g2 G G G2 d2 B2 |
%W:
% voice 1 (1 lines, 17 notes)
A A A2 a4 g3 ^f e3 ^f |d2 g2 B2 g2 A A A2 A2 e2 |
%W:
% voice 1 (1 lines, 17 notes)
A A A2 a4 g3 ^f e3 ^f |g2 d2 e2 g2 G G G2 d2 B2 |
%W:
% voice 1 (1 lines, 17 notes)
A A A2 a4 g3 ^f e3 ^f |d2 g2 B2 g2 A A A2 A2 z2 |||
